X:8
T:Hornpipe. RDO.08
M:4/4
L:1/8
Q:1/2=90
S:Robert D. Owen MS,Indiana,1826.
R:.Hornpipe
O:Indiana,USA
A:New Harmony
Z:vmp.Chris Partington
K:F
cB|{B}[A2a2][Gg][Ff] cfaf|cfaf cfaf|{b}a2ge cfaf|a2g2g2c’b|!
afca bgeg c’afa d’bgb|fdcB agc’b|a2f2f2:|!
|:((3c/d/e/)|(fe)fc ABcA|fefc ABcA|((3Bcd) cB AG gf|e2c2c2((3cde)|!
fefd dcBA|BGgf fedc|BAGF DEGB|A2F2F2:|

